icons/code-square-16.svg

<svg width="16" height="16" viewBox="0 0 16 16" fill="none" xmlns="http://www.w3.org/2000/svg">
<path fill-rule="evenodd" clip-rule="evenodd" d="M1.75 1.5C1.61193 1.5 1.5 1.61193 1.5 1.75V14.25C1.5 14.3881 1.61193 14.5 1.75 14.5H14.25C14.3881 14.5 14.5 14.3881 14.5 14.25V1.75C14.5 1.61193 14.3881 1.5 14.25 1.5H1.75ZM0 1.75C0 0.783502 0.783501 0 1.75 0H14.25C15.2165 0 16 0.783502 16 1.75V14.25C16 15.2165 15.2165 16 14.25 16H1.75C0.783502 16 0 15.2165 0 14.25V1.75ZM9.21967 5.46967C8.92678 5.76256 8.92678 6.23744 9.21967 6.53033L10.6893 8L9.21967 9.46967C8.92678 9.76256 8.92678 10.2374 9.21967 10.5303C9.51256 10.8232 9.98744 10.8232 10.2803 10.5303L12.2803 8.53033C12.5732 8.23744 12.5732 7.76256 12.2803 7.46967L10.2803 5.46967C9.98744 5.17678 9.51256 5.17678 9.21967 5.46967ZM6.78033 6.53033C7.07322 6.23744 7.07322 5.76256 6.78033 5.46967C6.48744 5.17678 6.01256 5.17678 5.71967 5.46967L3.71967 7.46967C3.42678 7.76256 3.42678 8.23744 3.71967 8.53033L5.71967 10.5303C6.01256 10.8232 6.48744 10.8232 6.78033 10.5303C7.07322 10.2374 7.07322 9.76256 6.78033 9.46967L5.31066 8L6.78033 6.53033Z" fill="#24292E"/>
</svg>

<svg xmlns="http://www.w3.org/2000/svg" width="16" height="16" viewBox="0 0 16 16"><path fill-rule="evenodd" d="M1.75 1.5a.25.25 0 00-.25.25v12.5c0 .138.112.25.25.25h12.5a.25.25 0 00.25-.25V1.75a.25.25 0 00-.25-.25H1.75zM0 1.75C0 .784.784 0 1.75 0h12.5C15.216 0 16 .784 16 1.75v12.5A1.75 1.75 0 0114.25 16H1.75A1.75 1.75 0 010 14.25V1.75zm9.22 3.72a.75.75 0 000 1.06L10.69 8 9.22 9.47a.75.75 0 101.06 1.06l2-2a.75.75 0 000-1.06l-2-2a.75.75 0 00-1.06 0zM6.78 6.53a.75.75 0 00-1.06-1.06l-2 2a.75.75 0 000 1.06l2 2a.75.75 0 101.06-1.06L5.31 8l1.47-1.47z"/></svg>
